svg/newspaper_variant_outline.svg

<svg xmlns="http://www.w3.org/2000/svg" viewBox="0 0 24 24"><path d="M20 5v14H4V5zm0-2H4c-1.11 0-2 .89-2 2v14c0 1.11.89 2 2 2h16c1.11 0 2-.89 2-2V5c0-1.11-.89-2-2-2m-2 12H6v2h12zm-8-8H6v6h4zm2 2h6V7h-6zm6 2h-6v2h6z"/></svg>

<?xml version="1.0" encoding="UTF-8"?><!DOCTYPE svg PUBLIC "-//W3C//DTD SVG 1.1//EN" "http://www.w3.org/Graphics/SVG/1.1/DTD/svg11.dtd"><svg xmlns="http://www.w3.org/2000/svg" xmlns:xlink="http://www.w3.org/1999/xlink" version="1.1" id="mdi-newspaper-variant-outline" width="24" height="24" viewBox="0 0 24 24"><path d="M20 5L20 19L4 19L4 5H20M20 3H4C2.89 3 2 3.89 2 5V19C2 20.11 2.89 21 4 21H20C21.11 21 22 20.11 22 19V5C22 3.89 21.11 3 20 3M18 15H6V17H18V15M10 7H6V13H10V7M12 9H18V7H12V9M18 11H12V13H18V11Z" /></svg>
